X:1
T:Title
%%score { ( 1 3 4 ) | ( 2 5 6 ) }
L:1/8
Q:1/4=100
M:6/8
K:Eb
V:1 treble nm="Grand Piano"
V:3 treble 
V:4 treble 
V:2 bass 
V:5 bass 
V:6 bass 
V:1
 G>AG G[FA][GB] | [_G=A][=GB][_Ac] [GB]3 | [DGB][DFA][DFA] [FA][EG][DF] | [EG][FA][_G=A] [=GB]3 | %4
w: James~McGranahan * * * * *||||
 G>AG G[FA][GB] | [Ac][Bd][Ac] [GB]3 | %6
w: ||
[M:27/32] z/4 z/4 z/4 z/4 z/4 z/4 z/4 z/4 z/4 z/4 z/4 z/4 z/4 z/4 z/4 z/4 z/4 z/4 z/4 z/4 z/ [FA]/4-[FA]/-<[FA]/- | %7
w: |
[M:3/4] [FA]3/4 z/4 z z2 z2 | %8
w: |
 (9:8:10[EAc]3/2[EA=B]3/4 [EAc]-[EAc]/8[CAe]-[CAe]/8 [EAd]-[EAd]/8[EAc]-[EAc]/8 | %9
w: |
 [GB]2- [GB]/4 z/4 z/ z z2 | (9:8:10[FA]3/2[=EG]3/4 [FA]-[FA]/8[Ac]-[Ac]/8 [GB]-[GB]/8[FA]-[FA]/8 | %11
w: ||
 (7:8:7[EG]3/4[FA]-[FA]/8[_G=A]3/4[=GB]3/8- [GB]2- [GB]/4 | %12
w: |
 (9:8:10[EAc]3/2[EA=B]3/4 [EAc]-[EAc]/8[Ece]-[Ece]/8 [E_Bd]-[EBd]/8[EAc]-[EAc]/8 |[M:15/16] z15/2 | %14
w: ||
[M:27/32] z/4 z/4 z/4 z/4 z/ [GB]3/4 z/4 z/ E/ z/4 z/4 z/4 z/4 z/4 z/4 z/4 z/4 z/4 z/4[Q:1/4=94] z/4[Q:1/4=88] z/[Q:1/4=97][Q:1/4=91][Q:1/4=84][Q:1/4=81][Q:1/4=78] | %15
w: |
[M:3/4] G2 A G3 |] %16
w: |
V:2
 [E,B,E]>[E,CE][E,B,E] [E,B,E][E,E][E,E] | [E,E][E,E][E,E] [E,E]3 | %2
 B,,B,,B,, [B,,B,][B,,B,][B,,B,] | [E,B,][E,B,][E,E] [E,E]3 | %4
 [E,B,E]>[E,CE][E,B,E] [E,B,E][E,E][E,E] | [E,E][E,E][E,E] [E,E]3 | %6
[M:27/32] B,,/4-B,,/4-B,,/-<B,,/B,,/B,,/-<B,,/B,,/B,,/4-B,,/4-B,,/4-B,,/4-B,,/-<B,,/ z/4 z/4 z/4 z/ | %7
[M:3/4] E,6 | (9:8:10A,,3/2A,,3/4 A,,-A,,/8A,,-A,,/8 A,,-A,,/8A,,-A,,/8 | %9
 [E,E]2- [E,E]/4 z/4 z/ z z2 | %10
 (9:8:10[B,,B,]3/2[B,,B,]3/4 [B,,B,]-[B,,B,]/8[B,,B,]-[B,,B,]/8 [B,,B,]-[B,,B,]/8[B,,B,]-[B,,B,]/8 | %11
 (7:8:7[E,B,]3/4[E,E]-[E,E]/8[E,E]3/4[E,E]3/8- [E,E]2- [E,E]/4 | %12
 (9:8:10A,3/2A,3/4 A,-A,/8A,-A,/8 A,-A,/8A,-A,/8 |[M:15/16] E,3/2-E,/4 z/4 z G,3/2- G,3- | %14
[M:27/32] G,3/4 z/4 z/ A,3/4 z/4 z/4 z/4 z/ G,/4-G,/4-G,/4-G,/4-G,/4-G,/-<G,/ z/4 z/4 z/ | %15
[M:3/4] B,2 C B,3 |] %16
V:3
 x6 | x6 | x6 | x6 | x6 | x6 | %6
[M:27/32] z/4 z/4 z/4 z/4 z/4 z/4 z/4 z/4 z/4 z/4 z/4 z/4 z/ [DGB]/4-[DGB]/4-[DGB]/4-[DGB]/4-[DGB]/4-[DGB]/4-[DGB]/-<[DGB]/ z/4 z/ | %7
[M:3/4] x6 | x6 | z2 (3:2:2[GB]3/2[EG]3/2- [EG]2 | x6 | x6 | x6 | %13
[M:15/16] z3/2 (3:2:2[EAc]3/4[EGB]3/2[B_d]3/2- [Bd]3- | %14
[M:27/32] [Bd]3/4 z/4 z/ C/ z/4 z/4 z/ [B,G]3/4 z/4 z/4 z/4 z/4 z/4 z/ [DA]/4-[DA]/-<[DA]/ | %15
[M:3/4] x6 |] %16
V:4
 x6 | x6 | x6 | x6 | x6 | x6 | %6
[M:27/32] [EGB]/4-[EGB]/4-[EGB]/-<[EGB]/[B,FA]/[B,EG]/-<[B,EG]/[B,DFA]/B,/4-B,/4-B,/4-B,/4-B,/-<B,/B,/4-B,/-<B,/ | %7
[M:3/4] [B,EG]6 | x6 | x6 | x6 | x6 | x6 |[M:15/16] [EGB]3/2-[EGB]/4 z/4 z E3/2- E3 | %14
[M:27/32] [EAc]/4-[EAc]/4-[EAc]/4-[EAc]/-<[EAc]/ z/4 [CFA]/4-[CFA]/-<[CFA]/ z/4 [EB]/4-[EB]/4-[EB]/4-[EB]/4-[EB]/4-[EB]/-<[EB]/ z/4 z/4 z/ | %15
[M:3/4] x6 |] %16
V:5
 x6 | x6 | x6 | x6 | x6 | x6 | %6
[M:27/32] z/4 z/4 z/4 z/4 z/4 z/4 z/4 z/4 z/4 z/4 z/4 z/4 z/4 z/4 z/4 z/4 z/4 z/4 z/4 z/4 z/ B,,/4-B,,/-<B,,/- | %7
[M:3/4] B,,3/4 z/4 z z2 z2 | x6 | z2 (3:2:2[E,E]3/2[E,B,]3/2- [E,B,]2 | x6 | x6 | x6 | %13
[M:15/16] z3/2 (3:2:2E,3/4E,3/2 z3/2 z3 | %14
[M:27/32] A,/4-A,/4-A,/-<A,/ z/4 z/4 z/4 z/4 z/ B,,/B,,/4-B,,/4-B,,/4-B,,/4-B,,/-<B,,/[B,,B,]/4-[B,,B,]/-<[B,,B,]/ | %15
[M:3/4] [E,E]6 |] %16
V:6
 x6 | x6 | x6 | x6 | x6 | x6 |[M:27/32] x27/4 |[M:3/4] x6 | x6 | x6 | x6 | x6 | x6 | %13
[M:15/16] x15/2 | %14
[M:27/32] z/4 z/4 z/4 z/4 z/4 z/4 z/ A,,/4-A,,/-<A,,/ z/4 z/4 z/4 z/4 z/4 z/4 z/4 z/4 z/4 z/4 z/4 z/4 z/ | %15
[M:3/4] x6 |] %16

